src/assets/img/main/download.svg

<svg id="Capa_1" data-name="Capa 1" xmlns="http://www.w3.org/2000/svg" xmlns:xlink="http://www.w3.org/1999/xlink" viewBox="0 0 406.91 474"><defs><style>.cls-1{fill:url(#Безымянный_градиент_9);}.cls-2{fill:url(#Безымянный_градиент_9-2);}.cls-3{fill:url(#Безымянный_градиент_9-3);}.cls-4{fill:url(#Безымянный_градиент_9-4);}.cls-5{fill:url(#Безымянный_градиент_9-5);}.cls-6{fill:url(#Безымянный_градиент_9-6);}.cls-7{fill:url(#Безымянный_градиент_9-7);}.cls-8{fill:url(#Безымянный_градиент_9-8);}.cls-9{fill:url(#Безымянный_градиент_9-9);}.cls-10{fill:url(#Безымянный_градиент_9-10);}</style><linearGradient id="Безымянный_градиент_9" x1="335.65" y1="55.08" x2="170.45" y2="341.22" gradientUnits="userSpaceOnUse"><stop offset="0" stop-color="#fd02dd"/><stop offset="1" stop-color="#76ffff"/></linearGradient><linearGradient id="Безымянный_градиент_9-2" x1="434.45" y1="451.6" x2="422.44" y2="472.4" xlink:href="#Безымянный_градиент_9"/><linearGradient id="Безымянный_градиент_9-3" x1="99.44" y1="451.62" x2="87.45" y2="472.38" xlink:href="#Безымянный_градиент_9"/><linearGradient id="Безымянный_градиент_9-4" x1="147.34" y1="451.62" x2="135.35" y2="472.38" xlink:href="#Безымянный_градиент_9"/><linearGradient id="Безымянный_градиент_9-5" x1="386.64" y1="451.62" x2="374.65" y2="472.38" xlink:href="#Безымянный_градиент_9"/><linearGradient id="Безымянный_градиент_9-6" x1="338.75" y1="451.6" x2="326.75" y2="472.38" xlink:href="#Безымянный_градиент_9"/><linearGradient id="Безымянный_градиент_9-7" x1="195.15" y1="451.6" x2="183.15" y2="472.38" xlink:href="#Безымянный_градиент_9"/><linearGradient id="Безымянный_градиент_9-8" x1="243.04" y1="451.62" x2="231.05" y2="472.38" xlink:href="#Безымянный_градиент_9"/><linearGradient id="Безымянный_градиент_9-9" x1="290.94" y1="451.62" x2="278.95" y2="472.38" xlink:href="#Безымянный_градиент_9"/><linearGradient id="Безымянный_градиент_9-10" x1="51.55" y1="451.6" x2="39.54" y2="472.4" xlink:href="#Безымянный_градиент_9"/></defs><title>download</title><path class="cls-1" d="M329.45,256.4l-80.4,80.4V12a12,12,0,0,0-24,0V336.8l-80.4-80.4a12,12,0,0,0-17,17l100.9,100.9a12,12,0,0,0,8.5,3.5,12.21,12.21,0,0,0,8.5-3.5l100.9-100.9a12,12,0,0,0-17-17Z" transform="translate(-33.55)"/><path class="cls-2" d="M437,453.5a12.07,12.07,0,1,0,3.5,8.5A11.47,11.47,0,0,0,437,453.5Z" transform="translate(-33.55)"/><path class="cls-3" d="M93.45,450a12,12,0,1,0,12,12A12,12,0,0,0,93.45,450Z" transform="translate(-33.55)"/><path class="cls-4" d="M141.35,450a12,12,0,1,0,12,12A12,12,0,0,0,141.35,450Z" transform="translate(-33.55)"/><path class="cls-5" d="M380.65,450a12,12,0,1,0,12,12A12,12,0,0,0,380.65,450Z" transform="translate(-33.55)"/><path class="cls-6" d="M332.75,450a12,12,0,1,0,12,12A12,12,0,0,0,332.75,450Z" transform="translate(-33.55)"/><path class="cls-7" d="M189.15,450a12,12,0,1,0,12,12A12,12,0,0,0,189.15,450Z" transform="translate(-33.55)"/><path class="cls-8" d="M237.05,450a12,12,0,1,0,12,12A12,12,0,0,0,237.05,450Z" transform="translate(-33.55)"/><path class="cls-9" d="M285,450a12,12,0,1,0,12,12A12,12,0,0,0,285,450Z" transform="translate(-33.55)"/><path class="cls-10" d="M45.55,450a12,12,0,1,0,8.5,3.5A12.12,12.12,0,0,0,45.55,450Z" transform="translate(-33.55)"/></svg>

<svg data-name="Capa 1" xmlns="http://www.w3.org/2000/svg" xmlns:xlink="http://www.w3.org/1999/xlink" viewBox="0 0 406.91 474"><defs><linearGradient id="a" x1="335.65" y1="55.08" x2="170.45" y2="341.22" gradientUnits="userSpaceOnUse"><stop offset="0" stop-color="#fd02dd"/><stop offset="1" stop-color="#76ffff"/></linearGradient><linearGradient id="b" x1="434.45" y1="451.6" x2="422.44" y2="472.4" xlink:href="#a"/><linearGradient id="c" x1="99.44" y1="451.62" x2="87.45" y2="472.38" xlink:href="#a"/><linearGradient id="d" x1="147.34" y1="451.62" x2="135.35" y2="472.38" xlink:href="#a"/><linearGradient id="e" x1="386.64" y1="451.62" x2="374.65" y2="472.38" xlink:href="#a"/><linearGradient id="f" x1="338.75" y1="451.6" x2="326.75" y2="472.38" xlink:href="#a"/><linearGradient id="g" x1="195.15" y1="451.6" x2="183.15" y2="472.38" xlink:href="#a"/><linearGradient id="h" x1="243.04" y1="451.62" x2="231.05" y2="472.38" xlink:href="#a"/><linearGradient id="i" x1="290.94" y1="451.62" x2="278.95" y2="472.38" xlink:href="#a"/><linearGradient id="j" x1="51.55" y1="451.6" x2="39.54" y2="472.4" xlink:href="#a"/></defs><path d="M329.45 256.4l-80.4 80.4V12a12 12 0 00-24 0v324.8l-80.4-80.4a12 12 0 00-17 17l100.9 100.9a12 12 0 008.5 3.5 12.21 12.21 0 008.5-3.5l100.9-100.9a12 12 0 00-17-17z" transform="translate(-33.55)" fill="url(#a)"/><path d="M437 453.5a12.07 12.07 0 103.5 8.5 11.47 11.47 0 00-3.5-8.5z" transform="translate(-33.55)" fill="url(#b)"/><path d="M93.45 450a12 12 0 1012 12 12 12 0 00-12-12z" transform="translate(-33.55)" fill="url(#c)"/><path d="M141.35 450a12 12 0 1012 12 12 12 0 00-12-12z" transform="translate(-33.55)" fill="url(#d)"/><path d="M380.65 450a12 12 0 1012 12 12 12 0 00-12-12z" transform="translate(-33.55)" fill="url(#e)"/><path d="M332.75 450a12 12 0 1012 12 12 12 0 00-12-12z" transform="translate(-33.55)" fill="url(#f)"/><path d="M189.15 450a12 12 0 1012 12 12 12 0 00-12-12z" transform="translate(-33.55)" fill="url(#g)"/><path d="M237.05 450a12 12 0 1012 12 12 12 0 00-12-12z" transform="translate(-33.55)" fill="url(#h)"/><path d="M285 450a12 12 0 1012 12 12 12 0 00-12-12z" transform="translate(-33.55)" fill="url(#i)"/><path d="M45.55 450a12 12 0 108.5 3.5 12.12 12.12 0 00-8.5-3.5z" transform="translate(-33.55)" fill="url(#j)"/></svg>
